X: 1
T:The Blue-Eyed Stranger
M:4/4
C:
S:Bay Area Teams
N:as used for The Stork (cf. Bucknell)
A:Field Town
O:English
R:Reel
%P:A/2.(A$^2$B$^2$)$^3$
P:A.(A2B2)3
K:G
I:speed 400
P:A
|: D | G2 D2 D2 GF | EDEF G2 A2 | B2 d2 cBAG  | E3 F G3 :|\
P:B
   z | GABc  d2 d2 | edcB A4    | GABc  d2 d2 | B3 c d4 |\
       GABc  d2 d2 | edcB A2 GA | B3 c  BAGF  | E3 F G3 ||
